src/assets/icons/icon_clock.svg

<svg width="16" height="16" viewBox="0 0 16 16" fill="none" xmlns="http://www.w3.org/2000/svg">
<path d="M8 1C11.866 1 15 4.13401 15 8C15 11.866 11.866 15 8 15C4.13401 15 1 11.866 1 8C1 4.13401 4.13401 1 8 1ZM8 2.9668C7.70542 2.9668 7.4668 3.20542 7.4668 3.5V8L7.47754 8.1084C7.48422 8.14091 7.49453 8.17208 7.50684 8.20215C7.51016 8.21025 7.51485 8.21769 7.51855 8.22559C7.52902 8.24794 7.54037 8.26951 7.55371 8.29004C7.55831 8.2971 7.56344 8.30372 7.56836 8.31055C7.58275 8.33056 7.59827 8.34938 7.61523 8.36719C7.62161 8.37387 7.62805 8.38038 7.63477 8.38672C7.65248 8.4035 7.67153 8.41837 7.69141 8.43262C7.69767 8.43709 7.7035 8.44208 7.70996 8.44629C7.73351 8.46167 7.75825 8.47477 7.78418 8.48633C7.78789 8.48798 7.79116 8.49062 7.79492 8.49219C7.82308 8.50397 7.85245 8.51269 7.88281 8.51953C7.88674 8.52041 7.89058 8.52167 7.89453 8.52246C7.9287 8.52934 7.96381 8.53418 8 8.53418C8.00359 8.53418 8.00716 8.53327 8.01074 8.5332H11.5L11.6074 8.52246C11.8505 8.47275 12.0332 8.25777 12.0332 8C12.0332 7.74223 11.8505 7.52725 11.6074 7.47754L11.5 7.4668H8.5332V3.5C8.5332 3.20542 8.29458 2.9668 8 2.9668Z" fill="#64748B"/>
</svg>

<svg xmlns="http://www.w3.org/2000/svg" fill="none" viewBox="0 0 16 16"><path fill="#64748b" d="M8 1a7 7 0 1 1 0 14A7 7 0 0 1 8 1m0 1.967a.533.533 0 0 0-.533.533V8l.01.108a.5.5 0 0 0 .03.094l.012.024.035.064.014.02a.5.5 0 0 0 .123.123l.019.013.074.04.01.006q.044.017.089.028l.012.002q.051.011.105.012h3.5l.107-.012a.533.533 0 0 0 0-1.044l-.107-.011H8.533V3.5A.533.533 0 0 0 8 2.967"/></svg>
